flaticon/medical/knee.svg

<svg xmlns="http://www.w3.org/2000/svg" width="32" height="32" viewBox="0 0 24 24">
    <path d="M 24 12 C 24 5.652344 19.042969 0.441406 12.796875 0.03125 L 12.792969 0.0273438 L 12.644531 0.0195312 C 12.644531 0.0195312 12.640625 0.0195312 12.640625 0.0195312 C 12.429688 0.0078125 12.214844 0 12 0 C 11.695312 0 11.394531 0.015625 11.09375 0.0390625 C 11.050781 0.0390625 11.003906 0.0429688 10.960938 0.046875 C 7 0.390625 3.585938 2.660156 1.664062 5.914062 C 1.652344 5.933594 1.640625 5.953125 1.632812 5.96875 C 1.324219 6.492188 1.058594 7.042969 0.835938 7.613281 C 0.820312 7.652344 0.804688 7.691406 0.789062 7.730469 C 0.683594 8.007812 0.585938 8.289062 0.5 8.578125 C 0.496094 8.589844 0.492188 8.601562 0.488281 8.613281 L 0.417969 8.859375 C 0.148438 9.863281 0 10.914062 0 12 C 0 15.335938 1.367188 18.355469 3.570312 20.53125 L 3.570312 20.539062 L 3.730469 20.691406 C 3.789062 20.746094 3.847656 20.796875 3.90625 20.847656 C 3.925781 20.871094 3.949219 20.890625 3.96875 20.910156 C 4.09375 21.019531 4.21875 21.128906 4.34375 21.234375 C 4.363281 21.25 4.382812 21.265625 4.402344 21.28125 C 4.53125 21.386719 4.667969 21.492188 4.804688 21.59375 C 4.816406 21.605469 4.832031 21.617188 4.847656 21.628906 C 4.988281 21.734375 5.132812 21.835938 5.28125 21.9375 C 5.289062 21.941406 5.300781 21.949219 5.3125 21.957031 C 5.460938 22.058594 5.613281 22.15625 5.769531 22.25 C 5.777344 22.257812 5.789062 22.261719 5.796875 22.269531 C 5.953125 22.363281 6.109375 22.453125 6.265625 22.539062 C 6.277344 22.542969 6.289062 22.550781 6.300781 22.558594 C 6.457031 22.640625 6.617188 22.722656 6.777344 22.800781 C 6.792969 22.808594 6.808594 22.816406 6.824219 22.824219 C 6.980469 22.898438 7.136719 22.96875 7.292969 23.035156 C 7.316406 23.046875 7.339844 23.058594 7.363281 23.066406 C 7.515625 23.128906 7.664062 23.1875 7.816406 23.246094 C 7.851562 23.257812 7.886719 23.273438 7.917969 23.285156 C 8.0625 23.335938 8.207031 23.382812 8.351562 23.429688 C 8.394531 23.445312 8.441406 23.460938 8.484375 23.472656 C 8.621094 23.515625 8.757812 23.550781 8.894531 23.589844 C 8.949219 23.605469 9.003906 23.621094 9.058594 23.632812 C 9.1875 23.664062 9.316406 23.695312 9.445312 23.722656 C 9.507812 23.738281 9.574219 23.75 9.636719 23.765625 C 9.761719 23.789062 9.886719 23.808594 10.007812 23.832031 C 10.078125 23.84375 10.148438 23.855469 10.222656 23.867188 C 10.34375 23.886719 10.46875 23.898438 10.589844 23.914062 C 10.664062 23.921875 10.738281 23.933594 10.808594 23.941406 C 10.941406 23.953125 11.074219 23.960938 11.207031 23.972656 C 11.273438 23.976562 11.335938 23.980469 11.402344 23.984375 C 11.601562 23.996094 11.800781 24 12 24 C 12.199219 24 12.398438 23.996094 12.59375 23.984375 C 12.664062 23.980469 12.730469 23.976562 12.800781 23.96875 C 12.929688 23.960938 13.054688 23.953125 13.179688 23.941406 C 13.261719 23.933594 13.339844 23.921875 13.421875 23.914062 C 13.535156 23.898438 13.652344 23.886719 13.765625 23.867188 C 13.847656 23.855469 13.925781 23.84375 14.007812 23.828125 C 14.117188 23.808594 14.230469 23.789062 14.34375 23.769531 C 14.421875 23.753906 14.496094 23.734375 14.574219 23.71875 C 14.6875 23.695312 14.804688 23.667969 14.917969 23.640625 C 14.988281 23.621094 15.058594 23.601562 15.125 23.585938 C 15.246094 23.550781 15.367188 23.519531 15.488281 23.480469 C 15.546875 23.460938 15.609375 23.445312 15.667969 23.425781 C 15.796875 23.382812 15.925781 23.339844 16.050781 23.292969 C 16.101562 23.277344 16.148438 23.257812 16.199219 23.238281 C 16.335938 23.1875 16.472656 23.132812 16.609375 23.078125 C 16.644531 23.0625 16.683594 23.046875 16.71875 23.03125 C 16.863281 22.96875 17.011719 22.902344 17.15625 22.832031 C 17.179688 22.820312 17.207031 22.808594 17.230469 22.796875 C 17.386719 22.722656 17.535156 22.644531 17.6875 22.5625 C 17.703125 22.554688 17.71875 22.546875 17.734375 22.539062 C 17.890625 22.453125 18.046875 22.359375 18.203125 22.265625 C 18.210938 22.261719 18.21875 22.257812 18.226562 22.253906 C 18.386719 22.15625 18.542969 22.054688 18.699219 21.949219 C 18.703125 21.949219 18.703125 21.945312 18.707031 21.945312 C 19.230469 21.59375 19.726562 21.199219 20.195312 20.761719 L 20.332031 20.632812 L 20.332031 20.625 C 22.589844 18.441406 24 15.382812 24 12 Z M 19.535156 11.8125 L 19.199219 13.160156 L 19.515625 20.296875 C 18.722656 21.015625 17.828125 21.621094 16.855469 22.089844 C 16.851562 22.09375 16.84375 22.097656 16.839844 22.097656 C 16.6875 22.171875 16.535156 22.242188 16.378906 22.308594 C 16.355469 22.320312 16.328125 22.328125 16.300781 22.339844 C 16.167969 22.394531 16.03125 22.449219 15.894531 22.5 C 15.851562 22.515625 15.808594 22.53125 15.769531 22.546875 C 15.644531 22.589844 15.523438 22.632812 15.398438 22.671875 C 15.34375 22.6875 15.289062 22.707031 15.234375 22.722656 C 15.121094 22.753906 15.007812 22.789062 14.894531 22.820312 C 14.832031 22.835938 14.765625 22.851562 14.703125 22.867188 C 14.597656 22.894531 14.488281 22.917969 14.382812 22.941406 C 14.308594 22.957031 14.238281 22.972656 14.167969 22.988281 C 14.066406 23.007812 13.960938 23.027344 13.855469 23.042969 C 13.78125 23.054688 13.707031 23.070312 13.632812 23.078125 C 13.527344 23.09375 13.417969 23.109375 13.3125 23.121094 C 13.238281 23.128906 13.167969 23.140625 13.09375 23.144531 C 12.976562 23.15625 12.855469 23.164062 12.738281 23.171875 C 12.675781 23.175781 12.613281 23.183594 12.546875 23.1875 C 12.367188 23.195312 12.183594 23.199219 12 23.199219 C 11.816406 23.199219 11.632812 23.195312 11.449219 23.1875 C 11.386719 23.183594 11.328125 23.175781 11.265625 23.171875 C 11.144531 23.164062 11.023438 23.15625 10.902344 23.144531 C 10.832031 23.136719 10.761719 23.128906 10.695312 23.121094 C 10.582031 23.109375 10.46875 23.09375 10.355469 23.078125 C 10.289062 23.070312 10.222656 23.054688 10.152344 23.046875 C 10.039062 23.027344 9.929688 23.007812 9.816406 22.984375 C 9.753906 22.972656 9.691406 22.957031 9.628906 22.945312 C 9.511719 22.917969 9.394531 22.894531 9.277344 22.863281 C 9.222656 22.851562 9.167969 22.835938 9.113281 22.820312 C 8.988281 22.789062 8.867188 22.753906 8.746094 22.714844 C 8.699219 22.703125 8.652344 22.6875 8.605469 22.671875 C 8.472656 22.628906 8.34375 22.585938 8.214844 22.539062 C 8.179688 22.527344 8.144531 22.515625 8.109375 22.5 C 7.96875 22.449219 7.824219 22.394531 7.6875 22.335938 C 7.664062 22.324219 7.640625 22.316406 7.621094 22.308594 C 7.46875 22.242188 7.316406 22.175781 7.167969 22.101562 C 7.160156 22.097656 7.148438 22.09375 7.140625 22.089844 C 6.152344 21.613281 5.246094 20.992188 4.445312 20.257812 C 5.15625 16.945312 6.738281 13.8125 6.753906 13.78125 L 6.894531 13.503906 L 1.332031 8.597656 C 1.332031 8.589844 1.335938 8.578125 1.339844 8.570312 C 1.421875 8.308594 1.515625 8.054688 1.617188 7.804688 C 1.628906 7.777344 1.640625 7.75 1.648438 7.726562 C 1.753906 7.472656 1.867188 7.226562 1.988281 6.988281 C 2.007812 6.953125 2.023438 6.921875 2.039062 6.886719 C 3.789062 3.503906 7.199219 1.179688 11.042969 0.84375 C 11.085938 0.839844 11.128906 0.835938 11.171875 0.835938 C 11.445312 0.8125 11.722656 0.800781 12 0.800781 C 12.152344 0.800781 12.304688 0.804688 12.453125 0.8125 L 17.929688 6.160156 C 19.425781 7.617188 20.042969 9.785156 19.535156 11.8125 Z M 0.800781 12 C 0.800781 11.125 0.902344 10.273438 1.09375 9.457031 L 5.90625 13.699219 C 5.519531 14.503906 4.421875 16.914062 3.777344 19.59375 C 1.929688 17.597656 0.800781 14.929688 0.800781 12 Z M 20.003906 13.242188 L 20.308594 12.007812 C 20.886719 9.703125 20.1875 7.242188 18.488281 5.585938 L 13.722656 0.933594 C 19.082031 1.765625 23.199219 6.410156 23.199219 12 C 23.199219 14.898438 22.09375 17.542969 20.28125 19.53125 Z M 20.003906 13.242188"/>
</svg>

<svg xmlns="http://www.w3.org/2000/svg" width="32" height="32" viewBox="0 0 24 24">
    <path d="M24 12C24 5.652 19.043.441 12.797.031l-.004-.004-.148-.007h-.004C12.43.008 12.215 0 12 0c-.305 0-.605.016-.906.04-.043 0-.09.003-.133.007a12.014 12.014 0 0 0-9.297 5.867l-.031.055a11.403 11.403 0 0 0-.797 1.644l-.047.117a12.01 12.01 0 0 0-.3.883l-.071.246A12.087 12.087 0 0 0 0 12c0 3.336 1.367 6.355 3.57 8.531v.008l.16.152c.06.055.118.106.176.157.02.023.043.043.063.062a27.723 27.723 0 0 0 .433.371c.13.106.266.211.403.313a12.24 12.24 0 0 0 .477.344 9.103 9.103 0 0 0 .488.313c.007.007.02.01.027.019a14.39 14.39 0 0 0 .504.289c.156.082.316.164.476.242l.047.023a12.363 12.363 0 0 0 .992.422c.036.012.07.027.102.04.144.05.289.097.434.144l.132.043c.137.043.274.078.41.117.055.015.11.031.165.043.129.031.257.062.386.09.063.015.13.027.192.043.125.023.25.043.37.066l.216.035c.12.02.246.031.367.047.074.008.148.02.219.027.132.012.265.02.398.032l.195.011c.2.012.399.016.598.016a9.953 9.953 0 0 0 .8-.031c.13-.008.255-.016.38-.028.082-.007.16-.02.242-.027.113-.016.23-.027.344-.047.082-.012.16-.023.242-.039l.336-.058c.078-.016.152-.036.23-.051.114-.024.23-.051.344-.078.07-.02.14-.04.207-.055.121-.035.242-.066.363-.106.059-.02.121-.035.18-.054.129-.043.258-.086.383-.133.05-.016.097-.035.148-.055.137-.05.274-.105.41-.16l.11-.047c.144-.062.293-.129.437-.199.024-.012.051-.023.074-.035.157-.074.305-.152.457-.235l.047-.023c.157-.086.313-.18.47-.273l.023-.012c.16-.098.316-.2.472-.305.004 0 .004-.004.008-.004.523-.351 1.02-.746 1.488-1.183l.137-.13v-.007A11.97 11.97 0 0 0 24 12zm-4.465-.188L19.2 13.16l.317 7.137a11.205 11.205 0 0 1-3.137 2.012c-.024.011-.05.02-.078.03a12.546 12.546 0 0 1-.531.208c-.125.043-.247.086-.372.125-.054.015-.109.035-.164.05-.113.032-.226.067-.34.098l-.19.047c-.106.028-.216.051-.321.074l-.215.047c-.102.02-.207.04-.313.055-.074.012-.148.027-.222.035a8.994 8.994 0 0 1-.32.043c-.075.008-.145.02-.22.024-.116.011-.238.02-.355.027-.062.004-.125.012-.191.015a12.636 12.636 0 0 1-1.098 0c-.062-.003-.12-.011-.183-.015-.121-.008-.243-.016-.364-.027l-.207-.024c-.113-.012-.226-.027-.34-.043-.066-.008-.132-.023-.203-.031-.113-.02-.222-.04-.336-.063-.062-.011-.125-.027-.187-.039-.117-.027-.234-.05-.352-.082a2.537 2.537 0 0 1-.164-.043 5.667 5.667 0 0 1-.367-.105 11.448 11.448 0 0 1-1.059-.379c-.023-.012-.046-.02-.066-.027a9.478 9.478 0 0 1-.453-.207l-.027-.012a11.171 11.171 0 0 1-2.696-1.832c.711-3.313 2.293-6.445 2.309-6.477l.14-.277-5.562-4.906a9.891 9.891 0 0 1 .285-.793c.012-.028.024-.055.031-.078a10.626 10.626 0 0 1 .391-.84C3.79 3.504 7.2 1.18 11.043.844c.043-.004.086-.008.129-.008a9.715 9.715 0 0 1 1.281-.023L17.93 6.16a5.915 5.915 0 0 1 1.605 5.652zM.801 12c0-.875.101-1.727.293-2.543l4.812 4.242c-.386.805-1.484 3.215-2.129 5.895A11.143 11.143 0 0 1 .801 12zm19.203 1.242l.305-1.234a6.716 6.716 0 0 0-1.82-6.422L13.722.934c5.359.832 9.476 5.476 9.476 11.066 0 2.898-1.105 5.543-2.918 7.531zm0 0"/>
</svg>
